X: 2043
T: SALMON TAILS UP THE WATER
Q: "Strathspey."
R: strathspey
B: Kerr's v.2 p.7 #43
Z: 2016 John Chambers <jc:trillian.mit.edu>
M: C
L: 1/8
K: A
e !segno!|:\
A<ee>f e>Ac2 | A<ee>=c B<=Gd<B |\
A<ee>f e>Ac2 | G<EE>F =G>AB<G :|
|:\
A<aTa2 e>ac>a | =G<=gTg2 d>g B<=G |\
A<aTa2 e>ac>a | =g<b e<g d<g "_D.C."B<=G !segno!:|
